src/pos-icons/keyboard-f6.svg

<svg height="24" viewBox="0 0 24 24" width="24" xmlns="http://www.w3.org/2000/svg"><path d="m5 7h6v2h-4v2h3v2h-3v4h-2zm10 0h4v2h-4v2h2c1.11 0 2 .9 2 2v2c0 1.11-.89 2-2 2h-2c-1.1 0-2-.89-2-2v-6c0-1.1.9-2 2-2m0 6v2h2v-2z"/></svg>

<?xml version="1.0" encoding="UTF-8"?><!DOCTYPE svg PUBLIC "-//W3C//DTD SVG 1.1//EN" "http://www.w3.org/Graphics/SVG/1.1/DTD/svg11.dtd"><svg xmlns="http://www.w3.org/2000/svg" xmlns:xlink="http://www.w3.org/1999/xlink" version="1.1" id="mdi-keyboard-f6" width="24" height="24" viewBox="0 0 24 24"><path d="M5 7H11V9H7V11H10V13H7V17H5V7M15 7H19V9H15V11H17C18.11 11 19 11.9 19 13V15C19 16.11 18.11 17 17 17H15C13.9 17 13 16.11 13 15V9C13 7.9 13.9 7 15 7M15 13V15H17V13H15Z" /></svg>
